alura/assets/api/cursos/databricks-data-factory-pipelines-nuvem.svg

<svg width="50" height="50" viewBox="0 0 50 50" fill="none" xmlns="http://www.w3.org/2000/svg">
<g clip-path="url(#clip0_1303_2)">
<path d="M34.3401 2.72005L26.5601 2.05005C23.3601 2.05005 12.0201 2.32005 5.13012 12.26L1.12012 23.06L42.1701 8.62005L34.3401 2.72005Z" fill="#F799FF"/>
<path d="M1 22.9301L4.96 36.3401C5.07 36.7001 9.51 41.9901 9.82 42.1901L15.44 45.1601L47.63 33.4201C48.28 33.0501 49.33 24.7801 48.38 20.0101C48.22 19.2201 45.69 12.5201 45.17 11.9101L42.17 8.40015L1 22.9301Z" fill="#E589EF"/>
<path d="M32.67 47.3002C25.66 49.5702 17.6901 48.5102 11.3501 43.7402C0.990052 35.9602 -1.09995 21.2602 6.69005 10.9102" stroke="#444444" stroke-width="2.5" stroke-miterlimit="10" stroke-linecap="round" stroke-linejoin="round"/>
<path d="M6.56006 11.0801C8.59006 8.09012 11.2901 6.35012 11.2901 6.35012L11.9501 5.81012C20.0301 0.120119 31.1901 -0.00988054 39.5201 6.26012C49.8801 14.0401 51.9601 28.7401 44.1701 39.0901" stroke="#444444" stroke-width="2.5" stroke-miterlimit="10" stroke-linecap="round" stroke-linejoin="round"/>
<path d="M20.8701 27.1702V29.0502C20.8701 30.0902 20.1501 30.9302 19.2501 30.9302C18.3501 30.9302 17.6301 30.0902 17.6301 29.0502V27.1702" stroke="#444444" stroke-miterlimit="10" stroke-linecap="round" stroke-linejoin="round"/>
<path d="M44.99 27.1702V29.0502C44.99 30.0902 44.27 30.9302 43.37 30.9302C42.47 30.9302 41.75 30.0902 41.75 29.0502V27.1702" stroke="#444444" stroke-miterlimit="10" stroke-linecap="round" stroke-linejoin="round"/>
<path d="M28.1401 30.9202V27.1702" stroke="#444444" stroke-miterlimit="10" stroke-linecap="round" stroke-linejoin="round"/>
<path d="M28.1401 47.8402V42.4902" stroke="#444444" stroke-miterlimit="10" stroke-linecap="round" stroke-linejoin="round"/>
<path d="M33.6602 42.8503V39.3103" stroke="#444444" stroke-miterlimit="10" stroke-linecap="round" stroke-linejoin="round"/>
<path d="M33.3801 29.9802H34.2501C34.9101 29.9802 35.4301 30.5102 35.4301 31.1602V34.4202C35.4301 35.0802 34.9001 35.6002 34.2501 35.6002H33.3801C32.7201 35.6002 32.2001 35.0702 32.2001 34.4202V31.1602C32.1901 30.5102 32.7201 29.9802 33.3801 29.9802Z" stroke="#444444" stroke-miterlimit="10" stroke-linecap="round" stroke-linejoin="round"/>
<path d="M23.7901 34.0503H24.6601C25.3201 34.0503 25.8401 34.5803 25.8401 35.2303V38.4903C25.8401 39.1503 25.3101 39.6703 24.6601 39.6703H23.7901C23.1301 39.6703 22.6101 39.1403 22.6101 38.4903V35.2303C22.6101 34.5803 23.1301 34.0503 23.7901 34.0503Z" stroke="#444444" stroke-miterlimit="10" stroke-linecap="round" stroke-linejoin="round"/>
<path d="M18.1001 41.4802H18.9701C19.6301 41.4802 20.1501 42.0102 20.1501 42.6602V45.9202C20.1501 46.5802 19.6201 47.1002 18.9701 47.1002H18.1001C17.4401 47.1002 16.9201 46.5702 16.9201 45.9202V42.6602C16.9101 42.0102 17.4401 41.4802 18.1001 41.4802Z" stroke="#444444" stroke-miterlimit="10" stroke-linecap="round" stroke-linejoin="round"/>
<path d="M39.4702 40.3003V32.8003" stroke="#444444" stroke-miterlimit="10" stroke-linecap="round" stroke-linejoin="round"/>
<path d="M13.6201 40.7202V33.2202" stroke="#444444" stroke-miterlimit="10" stroke-linecap="round" stroke-linejoin="round"/>
<path d="M10.8601 30.8502V26.9802" stroke="#444444" stroke-miterlimit="10" stroke-linecap="round" stroke-linejoin="round"/>
<path d="M41.71 26.6302H48.89C49.43 26.6302 48.05 16.2002 45.83 15.0602C44.57 14.6802 42.74 14.5902 41.61 14.8102C41.63 14.5702 41.65 14.3202 41.65 14.0802C41.65 8.77022 37.35 4.47021 32.04 4.47021C27.43 4.47021 23.58 7.72022 22.65 12.0502C21.9 11.7202 21.08 11.5302 20.21 11.5302C17.52 11.5302 15.24 13.3002 14.46 15.7302C10.41 16.1202 7.25 19.5302 7.25 23.6902C7.25 24.3302 7.33 24.9502 7.47 25.5402C7.63 26.1902 8.23 26.6302 8.9 26.6302H44.64" stroke="#444444" stroke-miterlimit="10" stroke-linejoin="round"/>
</g>
<defs>
<clipPath id="clip0_1303_2">
<rect width="50" height="50" fill="white"/>
</clipPath>
</defs>
</svg>

<?xml version="1.0" encoding="utf-8"?>
<!-- Generator: Adobe Illustrator 27.5.0, SVG Export Plug-In . SVG Version: 6.00 Build 0)  -->
<svg version="1.1" id="Camada_3" xmlns="http://www.w3.org/2000/svg" xmlns:xlink="http://www.w3.org/1999/xlink" x="0px" y="0px"
	 viewBox="0 0 50 50" style="enable-background:new 0 0 50 50;" xml:space="preserve">
<style type="text/css">
	.st0{fill:#F799FF;}
	.st1{fill:#E589EF;}
	.st2{fill:none;stroke:#444444;stroke-width:2.5;stroke-linecap:round;stroke-linejoin:round;stroke-miterlimit:10;}
	.st3{fill:none;stroke:#444444;stroke-linecap:round;stroke-linejoin:round;stroke-miterlimit:10;}
	.st4{fill:#47B7AF;}
	.st5{fill:none;stroke:#444444;stroke-linejoin:round;stroke-miterlimit:10;}
</style>
<g>
	<g>
		<g>
			<g>
				<path class="st0" d="M34.34,2.72l-7.78-0.67c-3.2,0-14.54,0.27-21.43,10.21l-4.01,10.8L42.17,8.62L34.34,2.72z"/>
				<path class="st1" d="M1,22.93l3.96,13.41c0.11,0.36,4.55,5.65,4.86,5.85l5.62,2.97l32.19-11.74c0.65-0.37,1.7-8.64,0.75-13.41
					c-0.16-0.79-2.69-7.49-3.21-8.1l-3-3.51L1,22.93z"/>
			</g>
			<g>
				<g>
					<g>
						<path class="st2" d="M32.67,47.3c-7.01,2.27-14.98,1.21-21.32-3.56C0.99,35.96-1.1,21.26,6.69,10.91"/>
						<path class="st2" d="M6.56,11.08c2.03-2.99,4.73-4.73,4.73-4.73l0.66-0.54c8.08-5.69,19.24-5.82,27.57,0.45
							c10.36,7.78,12.44,22.48,4.65,32.83"/>
					</g>
				</g>
			</g>
		</g>
	</g>
	<g>
		<path class="st3" d="M20.87,27.17v1.88c0,1.04-0.72,1.88-1.62,1.88l0,0c-0.9,0-1.62-0.84-1.62-1.88v-1.88"/>
		<path class="st3" d="M44.99,27.17v1.88c0,1.04-0.72,1.88-1.62,1.88l0,0c-0.9,0-1.62-0.84-1.62-1.88v-1.88"/>
		<line class="st3" x1="28.14" y1="30.92" x2="28.14" y2="27.17"/>
		<line class="st3" x1="28.14" y1="47.84" x2="28.14" y2="42.49"/>
		<line class="st3" x1="33.66" y1="42.85" x2="33.66" y2="39.31"/>
		<path class="st3" d="M33.38,29.98h0.87c0.66,0,1.18,0.53,1.18,1.18v3.26c0,0.66-0.53,1.18-1.18,1.18h-0.87
			c-0.66,0-1.18-0.53-1.18-1.18v-3.26C32.19,30.51,32.72,29.98,33.38,29.98z"/>
		<path class="st3" d="M23.79,34.05h0.87c0.66,0,1.18,0.53,1.18,1.18v3.26c0,0.66-0.53,1.18-1.18,1.18h-0.87
			c-0.66,0-1.18-0.53-1.18-1.18v-3.26C22.61,34.58,23.13,34.05,23.79,34.05z"/>
		<path class="st3" d="M18.1,41.48h0.87c0.66,0,1.18,0.53,1.18,1.18v3.26c0,0.66-0.53,1.18-1.18,1.18H18.1
			c-0.66,0-1.18-0.53-1.18-1.18v-3.26C16.91,42.01,17.44,41.48,18.1,41.48z"/>
		<line class="st3" x1="39.47" y1="40.3" x2="39.47" y2="32.8"/>
		<line class="st3" x1="13.62" y1="40.72" x2="13.62" y2="33.22"/>
		<line class="st3" x1="10.86" y1="30.85" x2="10.86" y2="26.98"/>
	</g>
	<g>
		<g id="Camada_8_00000088825162547213597380000009186915038862465169_">
			<path class="st4" d="M25.05,41.01"/>
		</g>
		<g>
			<path class="st5" d="M41.71,26.63h7.18c0.54,0-0.84-10.43-3.06-11.57c-1.26-0.38-3.09-0.47-4.22-0.25
				c0.02-0.24,0.04-0.49,0.04-0.73c0-5.31-4.3-9.61-9.61-9.61c-4.61,0-8.46,3.25-9.39,7.58c-0.75-0.33-1.57-0.52-2.44-0.52
				c-2.69,0-4.97,1.77-5.75,4.2c-4.05,0.39-7.21,3.8-7.21,7.96c0,0.64,0.08,1.26,0.22,1.85c0.16,0.65,0.76,1.09,1.43,1.09h35.74"/>
		</g>
	</g>
</g>
</svg>
